Numix/22x22/categories/applications-graphics.svg

<?xml version="1.0" encoding="UTF-8" standalone="no"?>
<svg
   xmlns:dc="http://purl.org/dc/elements/1.1/"
   xmlns:cc="http://creativecommons.org/ns#"
   xmlns:rdf="http://www.w3.org/1999/02/22-rdf-syntax-ns#"
   xmlns:svg="http://www.w3.org/2000/svg"
   xmlns="http://www.w3.org/2000/svg"
   xmlns:sodipodi="http://sodipodi.sourceforge.net/DTD/sodipodi-0.dtd"
   xmlns:inkscape="http://www.inkscape.org/namespaces/inkscape"
   width="24"
   height="24"
   viewBox="0 0 24 24"
   id="svg2"
   version="1.1"
   inkscape:version="0.91 r"
   sodipodi:docname="applications-graphics.svg">
  <metadata
     id="metadata16">
    <rdf:RDF>
      <cc:Work
         rdf:about="">
        <dc:format>image/svg+xml</dc:format>
        <dc:type
           rdf:resource="http://purl.org/dc/dcmitype/StillImage" />
        <dc:title></dc:title>
      </cc:Work>
    </rdf:RDF>
  </metadata>
  <defs
     id="defs14" />
  <sodipodi:namedview
     pagecolor="#ffffff"
     bordercolor="#666666"
     borderopacity="1"
     objecttolerance="10"
     gridtolerance="10"
     guidetolerance="10"
     inkscape:pageopacity="0"
     inkscape:pageshadow="2"
     inkscape:window-width="1920"
     inkscape:window-height="1056"
     id="namedview12"
     showgrid="false"
     inkscape:zoom="10.727273"
     inkscape:cx="11"
     inkscape:cy="11"
     inkscape:window-x="0"
     inkscape:window-y="24"
     inkscape:window-maximized="1"
     inkscape:current-layer="svg2" />
  <g
     style="fill:#4ea34d"
     id="g4"
     transform="translate(0.99903945,0.99983982)">
    <path
       d="M 10.824219,7.480469 C 7.335938,7.632812 3.941406,9.335938 5.382812,12.78125 c 2.101563,-0.792969 5.027344,0.386719 3.8125,0.972656 2.394532,1.972656 8.3125,-1.214844 7.722657,-3.921875 -0.609375,-1.652343 -3.378907,-2.472656 -6.09375,-2.351562 z m -0.09375,0.972656 c 0.726562,0 1.316406,0.195313 1.316406,0.433594 0,0.238281 -0.589844,0.433593 -1.316406,0.433593 -0.726563,0 -1.316407,-0.195312 -1.316407,-0.433593 0,-0.238281 0.589844,-0.433594 1.316407,-0.433594 z m 3.257812,0.71875 c 0.726563,0 1.316407,0.195313 1.316407,0.433594 0,0.238281 -0.589844,0.433593 -1.316407,0.433593 -0.730469,0 -1.320312,-0.195312 -1.320312,-0.433593 0,-0.238281 0.589843,-0.433594 1.320312,-0.433594 z M 8,9.832031 c 0.730469,0 1.320312,0.191407 1.320312,0.433594 0,0.238281 -0.589843,0.433594 -1.320312,0.433594 -0.726562,0 -1.316406,-0.195313 -1.316406,-0.433594 0,-0.242187 0.589844,-0.433594 1.316406,-0.433594 z m 5.957031,1.136719 c 0.726563,0 1.316407,0.195312 1.316407,0.433594 0,0.238281 -0.589844,0.433594 -1.316407,0.433594 -0.730469,0 -1.320312,-0.195313 -1.320312,-0.433594 0,-0.238282 0.589843,-0.433594 1.320312,-0.433594 z m -2.296875,1.648438 c 0.730469,0 1.320313,0.191406 1.320313,0.433593 0,0.238281 -0.589844,0.433594 -1.320313,0.433594 -0.726562,0 -1.316406,-0.195313 -1.316406,-0.433594 0,-0.242187 0.589844,-0.433593 1.316406,-0.433593 z"
       id="path6"
       inkscape:connector-curvature="0" />
    <path
       d="m 15.796875,4.175781 -6.46875,10.820313 c -0.503906,-0.01172 -0.976563,-0.25 -1.3125,-0.734375 l 6.929687,-10.5625 c 0.464844,-0.109375 0.75,0.050781 0.851563,0.476562 z"
       id="path8"
       inkscape:connector-curvature="0" />
    <path
       d="M 7.976562,16.875 C 8.703125,16.78125 9.824219,15.855469 9.300781,14.515625 8.042969,14.15625 8.328125,13.972656 8.328125,13.972656 6.601562,14.386719 5.289062,16.363281 5.648438,17.617188 5.878906,18.414062 5.839844,18.332031 5.839844,18.332031 6.320312,16.792969 6.328125,17.074219 7.976562,16.875 Z"
       id="path10"
       inkscape:connector-curvature="0" />
  </g>
</svg>

<svg width="22" xmlns="http://www.w3.org/2000/svg" height="22" viewBox="0 0 22 22" xmlns:xlink="http://www.w3.org/1999/xlink">
<g style="fill:#4ea34d">
<path d="M 10.824219 7.480469 C 7.335938 7.632812 3.941406 9.335938 5.382812 12.78125 C 7.484375 11.988281 10.410156 13.167969 9.195312 13.753906 C 11.589844 15.726562 17.507812 12.539062 16.917969 9.832031 C 16.308594 8.179688 13.539062 7.359375 10.824219 7.480469 Z M 10.730469 8.453125 C 11.457031 8.453125 12.046875 8.648438 12.046875 8.886719 C 12.046875 9.125 11.457031 9.320312 10.730469 9.320312 C 10.003906 9.320312 9.414062 9.125 9.414062 8.886719 C 9.414062 8.648438 10.003906 8.453125 10.730469 8.453125 Z M 13.988281 9.171875 C 14.714844 9.171875 15.304688 9.367188 15.304688 9.605469 C 15.304688 9.84375 14.714844 10.039062 13.988281 10.039062 C 13.257812 10.039062 12.667969 9.84375 12.667969 9.605469 C 12.667969 9.367188 13.257812 9.171875 13.988281 9.171875 Z M 8 9.832031 C 8.730469 9.832031 9.320312 10.023438 9.320312 10.265625 C 9.320312 10.503906 8.730469 10.699219 8 10.699219 C 7.273438 10.699219 6.683594 10.503906 6.683594 10.265625 C 6.683594 10.023438 7.273438 9.832031 8 9.832031 Z M 13.957031 10.96875 C 14.683594 10.96875 15.273438 11.164062 15.273438 11.402344 C 15.273438 11.640625 14.683594 11.835938 13.957031 11.835938 C 13.226562 11.835938 12.636719 11.640625 12.636719 11.402344 C 12.636719 11.164062 13.226562 10.96875 13.957031 10.96875 Z M 11.660156 12.617188 C 12.390625 12.617188 12.980469 12.808594 12.980469 13.050781 C 12.980469 13.289062 12.390625 13.484375 11.660156 13.484375 C 10.933594 13.484375 10.34375 13.289062 10.34375 13.050781 C 10.34375 12.808594 10.933594 12.617188 11.660156 12.617188 Z "/>
<path d="M 15.796875 4.175781 L 9.328125 14.996094 C 8.824219 14.984375 8.351562 14.746094 8.015625 14.261719 L 14.945312 3.699219 C 15.410156 3.589844 15.695312 3.75 15.796875 4.175781 Z "/>
<path d="M 7.976562 16.875 C 8.703125 16.78125 9.824219 15.855469 9.300781 14.515625 C 8.042969 14.15625 8.328125 13.972656 8.328125 13.972656 C 6.601562 14.386719 5.289062 16.363281 5.648438 17.617188 C 5.878906 18.414062 5.839844 18.332031 5.839844 18.332031 C 6.320312 16.792969 6.328125 17.074219 7.976562 16.875 Z "/>
</g>
</svg>
